X:32
T: Der Maedchenmoerder (Halewijn - Ulinger)
N: Q0041N
O: Mitteleuropa, Deutschland (BRD) , Gegend von Heidelberg
N: Schlusston rhythmisch korrigiert.
R: Ballade, Verfuehrung, Mord, Mordversuch bzw. Rache
M: 3/2
L: 1/8
K: G
GGA | B4A4B2cB | A4z2
BAG2GF | G4B4A2BA | G6z4
A2 | F2E2F2D2E2F2 | G4ABA4
B2 | E4E2D3GG2 | A6G4
A2 | F2E2F2D2E2F2 | G4ABA4
B2 | E4E2D3GG2 | A6G3

